src/assets/logo.svg

<svg xmlns="http://www.w3.org/2000/svg" xmlns:xlink="http://www.w3.org/1999/xlink" xmlns:svgjs="http://svgjs.dev/svgjs" width="1000" height="1125"><svg viewBox="0 0 320 360" data-background-color="#ffffff" height="1125" width="1000" xmlns="http://www.w3.org/2000/svg" xmlns:xlink="http://www.w3.org/1999/xlink"><svg viewBox="0 0 320 360" height="360" width="320"><svg/><svg viewBox="0 0 320 360" height="360" width="320"><path xmlns="http://www.w3.org/2000/svg" d="M320 187.111c0-45.764-20.238-86.866-52.203-114.908C239.754 40.239 198.652 20 152.889 20 68.587 20 0 88.587 0 172.889c0 45.753 20.231 86.848 52.185 114.891C80.228 319.755 121.337 340 167.111 340c.299 0 .59-.021.889-.021.299 0 .59.021.889.021C252.345 340 320 272.345 320 188.889c0-.299-.021-.59-.021-.889 0-.299.021-.59.021-.889zM59.833 263.097C44.74 241.842 35.762 215.954 35.577 188 36.057 115.072 95.069 56.057 168 55.577c27.954.185 53.845 9.163 75.097 24.256 24.366 23.627 39.57 56.64 39.57 93.056 0 71.559-58.219 129.778-129.778 129.778-36.416 0-69.429-15.204-93.056-39.57zM3.556 172.889c0-82.343 66.99-149.333 149.333-149.333 35.051 0 67.292 12.167 92.8 32.462-22.98-13.824-49.863-21.796-78.578-21.796-84.302 0-152.889 68.587-152.889 152.889 0 28.708 7.968 55.584 21.785 78.56-20.288-25.5-32.452-57.739-32.451-92.782zm163.555 145.778c-35.84 0-68.363-14.418-92.107-37.743 21.952 15.89 48.864 25.298 77.885 25.298 73.522 0 133.333-59.812 133.333-133.333 0-29.02-9.408-55.932-25.298-77.885 23.324 23.744 37.742 56.267 37.743 92.107 0 72.54-59.015 131.556-131.556 131.556z" fill="#3781e5" font-family="none" font-weight="none" font-size="none" text-anchor="none" style="mix-blend-mode:normal" data-fill-palette-color="tertiary"/><svg viewBox="0 0 192 91.078" height="91.078" width="192" transform="translate(64 134.461)"><svg viewBox="0 0 192 91.078" height="91.078" width="192"><svg viewBox="0 0 192 91.078" height="91.078" width="192"><svg viewBox="0 0 192 91.078" height="91.078" width="192"><svg viewBox="0 0 192 91.078" height="91.078" width="192"><svg viewBox="0 0 192 91.078" height="91.078" width="192"><svg width="192" viewBox="0.9 -40.43 85.23 40.43" height="91.078" data-palette-color="#3781e5"><path d="M16.89 0 .9-40.43h1.91L17.85-2.37l15.04-38.06h1.88L18.8 0h-1.91zM6.57-40.43l12.5 31.64-1 2.25L4.69-40.43h1.88zm3.81 0L20.95-13.6l-.93 2.42L8.47-40.43h1.91zm3.76 0 8.66 21.95-.92 2.46-9.62-24.41h1.88zM28.25 0l15.96-40.43h1.91L30.13 0h-1.88zm-3.79 0 15.99-40.43h1.88L26.34 0h-1.88zm-3.78 0 15.97-40.43h1.9L22.56 0h-1.88zm38.3 0L45.07-35.16h1.9L59.93-2.37 72.9-35.16h1.88L60.89 0h-1.91zm1.17-6.54-11.3-28.62h1.88L61.15-8.79l-1 2.25zm1.96-4.64-9.48-23.98h1.91l8.49 21.56-.92 2.42zm1.85-4.84-7.54-19.14h1.88l6.59 16.68-.93 2.46zM70.33 0l13.9-35.16h1.9L72.21 0h-1.88zm-3.78 0 13.92-35.16h1.88L68.43 0h-1.88zm-3.78 0 13.89-35.16h1.9L64.65 0h-1.88z" opacity="1" fill="#3781e5" class="undefined-text-0" data-fill-palette-color="primary" id="text-0"/></svg></svg></svg></svg></svg></svg></svg></svg></svg></svg></svg>

<svg xmlns="http://www.w3.org/2000/svg" version="1.1" xmlns:xlink="http://www.w3.org/1999/xlink" xmlns:svgjs="http://svgjs.dev/svgjs" width="1000" height="1125" viewBox="0 0 1000 1125"><g transform="matrix(1,0,0,1,0,0)"><svg viewBox="0 0 320 360" data-background-color="#ffffff" preserveAspectRatio="xMidYMid meet" height="1125" width="1000" xmlns="http://www.w3.org/2000/svg" xmlns:xlink="http://www.w3.org/1999/xlink"><g id="tight-bounds" transform="matrix(1,0,0,1,0,0)"><svg viewBox="0 0 320 360" height="360" width="320"><g><svg></svg></g><g><svg viewBox="0 0 320 360" height="360" width="320"><g><path xmlns="http://www.w3.org/2000/svg" d="M320 187.111c0-45.764-20.238-86.866-52.203-114.908-28.043-31.964-69.145-52.203-114.908-52.203-84.302 0-152.889 68.587-152.889 152.889 0 45.753 20.231 86.848 52.185 114.891 28.043 31.975 69.152 52.22 114.926 52.22 0.299 0 0.59-0.021 0.889-0.021 0.299 0 0.59 0.021 0.889 0.021 83.456 0 151.111-67.655 151.111-151.111 0-0.299-0.021-0.59-0.021-0.889 0-0.299 0.021-0.59 0.021-0.889zM59.833 263.097c-15.093-21.255-24.071-47.143-24.256-75.097 0.48-72.928 59.492-131.943 132.423-132.423 27.954 0.185 53.845 9.163 75.097 24.256 24.366 23.627 39.57 56.64 39.57 93.056 0 71.559-58.219 129.778-129.778 129.778-36.416 0-69.429-15.204-93.056-39.57zM3.556 172.889c0-82.343 66.99-149.333 149.333-149.333 35.051 0 67.292 12.167 92.8 32.462-22.98-13.824-49.863-21.796-78.578-21.796-84.302 0-152.889 68.587-152.889 152.889 0 28.708 7.968 55.584 21.785 78.56-20.288-25.5-32.452-57.739-32.451-92.782zM167.111 318.667c-35.84 0-68.363-14.418-92.107-37.743 21.952 15.89 48.864 25.298 77.885 25.298 73.522 0 133.333-59.812 133.333-133.333 0-29.02-9.408-55.932-25.298-77.885 23.324 23.744 37.742 56.267 37.743 92.107 0 72.54-59.015 131.556-131.556 131.556z" fill="#3781e5" fill-rule="nonzero" stroke="none" stroke-width="1" stroke-linecap="butt" stroke-linejoin="miter" stroke-miterlimit="10" stroke-dasharray="" stroke-dashoffset="0" font-family="none" font-weight="none" font-size="none" text-anchor="none" style="mix-blend-mode: normal" data-fill-palette-color="tertiary"></path></g><g transform="matrix(1,0,0,1,64,134.461185906617)"><svg viewBox="0 0 192 91.07762818676596" height="91.07762818676596" width="192"><g><svg viewBox="0 0 192 91.07762818676596" height="91.07762818676596" width="192"><g><svg viewBox="0 0 192 91.07762818676596" height="91.07762818676596" width="192"><g><svg viewBox="0 0 192 91.07762818676596" height="91.07762818676596" width="192"><g><svg viewBox="0 0 192 91.07762818676596" height="91.07762818676596" width="192"><g><svg viewBox="0 0 192 91.07762818676596" height="91.07762818676596" width="192"><g transform="matrix(1,0,0,1,0,0)"><svg width="192" viewBox="0.9000000357627869 -40.43000030517578 85.22999572753906 40.43000030517578" height="91.07762818676596" data-palette-color="#3781e5"><path d="M16.89 0L0.9-40.43 2.81-40.43 17.85-2.37 32.89-40.43 34.77-40.43 18.8 0 16.89 0ZM6.57-40.43L19.07-8.79 18.07-6.54 4.69-40.43 6.57-40.43ZM10.38-40.43L20.95-13.6 20.02-11.18 8.47-40.43 10.38-40.43ZM14.14-40.43L22.8-18.48 21.88-16.02 12.26-40.43 14.14-40.43ZM28.25 0L44.21-40.43 46.12-40.43 30.13 0 28.25 0ZM24.46 0L40.45-40.43 42.33-40.43 26.34 0 24.46 0ZM20.68 0L36.65-40.43 38.55-40.43 22.56 0 20.68 0ZM58.98 0L45.07-35.16 46.97-35.16 59.93-2.37 72.9-35.16 74.78-35.16 60.89 0 58.98 0ZM60.15-6.54L48.85-35.16 50.73-35.16 61.15-8.79 60.15-6.54ZM62.11-11.18L52.63-35.16 54.54-35.16 63.03-13.6 62.11-11.18ZM63.96-16.02L56.42-35.16 58.3-35.16 64.89-18.48 63.96-16.02ZM70.33 0L84.23-35.16 86.13-35.16 72.21 0 70.33 0ZM66.55 0L80.47-35.16 82.35-35.16 68.43 0 66.55 0ZM62.77 0L76.66-35.16 78.56-35.16 64.65 0 62.77 0Z" opacity="1" transform="matrix(1,0,0,1,0,0)" fill="#3781e5" class="undefined-text-0" data-fill-palette-color="primary" id="text-0"></path></svg></g></svg></g></svg></g></svg></g><g></g></svg></g></svg></g></svg></g></svg></g><defs></defs></svg><rect width="320" height="360" fill="none" stroke="none" visibility="hidden"></rect></g></svg></g></svg>
